X:1
T:Morning Gallop (Sodar na Maidine)
C:Carl Hession
D:Carl Hession, "Ceol Inne/ Ceol Inniu"
D:"Old Time New Time" (Gael Linn CEF 173
Z:Paul de Grae  irtrad-l 2000-03-10
M:6/8
L:1/8
R:jig
K:D
aba gag|fef ged|cAA dAA|efd cAA|
aba gag|fef ged|cAA dcd|ecA A3:||
c3 d3|efg gfe|fga agf|efd cAA|
cAA dcd|efg gfe|fga agf|ecA A2 B||
cAA dAA|efg gfe|fga agf|efd cAA|
cBc dcd|efg gfe|fga gab|ad'b a3||
